5-network/05-fetch-crossorigin/xhr-another-domain.svg

<svg xmlns="http://www.w3.org/2000/svg" width="633" height="411" viewBox="0 0 633 411"><defs><style>@import url(https://fonts.googleapis.com/css?family=Open+Sans:bold,italic,bolditalic%7CPT+Mono);@font-face{font-family:&apos;PT Mono&apos;;font-weight:700;font-style:normal;src:local(&apos;PT MonoBold&apos;),url(/font/PTMonoBold.woff2) format(&apos;woff2&apos;),url(/font/PTMonoBold.woff) format(&apos;woff&apos;),url(/font/PTMonoBold.ttf) format(&apos;truetype&apos;)}</style></defs><g id="network" fill="none" fill-rule="evenodd" stroke="none" stroke-width="1"><g id="xhr-another-domain.svg"><path id="Rectangle-227" fill="#FFF9EB" stroke="#E8C48E" stroke-width="2" d="M1 16h128v64H1z"/><text id="JavaScript" fill="#8A704D" font-family="OpenSans-Regular, Open Sans" font-size="14" font-weight="normal"><tspan x="35" y="50">JavaScript</tspan></text><path id="Rectangle-228" fill="#FFF9EB" stroke="#E8C48E" stroke-width="2" d="M261 16h128v64H261z"/><text id="Browser" fill="#8A704D" font-family="OpenSans-Regular, Open Sans" font-size="14" font-weight="normal"><tspan x="296" y="50">Browser</tspan></text><path id="Rectangle-229" fill="#FFF9EB" stroke="#E8C48E" stroke-width="2" d="M504 16h128v64H504z"/><text id="Server" fill="#8A704D" font-family="OpenSans-Regular, Open Sans" font-size="14" font-weight="normal"><tspan x="544" y="50">Server</tspan></text><path id="Line" stroke="#979797" stroke-linecap="square" d="M66 81v320M326 81v320M569 81v320"/><path id="Line" fill="#EE6B47" fill-rule="nonzero" d="M312 133l14 7-14 7v-6H66v-2h246v-6z"/><text id="Origin:-https://java" fill="#8A704D" font-family="OpenSans-Regular, Open Sans" font-size="14" font-weight="normal"><tspan x="354.313" y="205">Origin: https://javascript.info</tspan></text><text id="HTTP-request" fill="#8A704D" font-family="OpenSans-Regular, Open Sans" font-size="14" font-weight="normal"><tspan x="401.015" y="174">HTTP-request</tspan></text><text id="fetch()" fill="#8A704D" font-family="OpenSans-Regular, Open Sans" font-size="14" font-weight="normal"><tspan x="171" y="131">fetch()</tspan></text><text id="HTTP-response" fill="#8A704D" font-family="OpenSans-Regular, Open Sans" font-size="14" font-weight="normal"><tspan x="398.419" y="250">HTTP-response</tspan></text><text id="Access-Control-Allow" fill="#8A704D" font-family="OpenSans-Regular, Open Sans" font-size="14" font-weight="normal"><tspan x="347.5" y="287">Access-Control-Allow-Origin: * </tspan> <tspan x="364.361" y="305">(or https://javascript.info)</tspan></text><text id="if-the-header-allows" fill="#8A704D" font-family="OpenSans-Regular, Open Sans" font-size="14" font-weight="normal"><tspan x="85" y="325">if the header allows, then success,</tspan></text><text id="otherwise-fail" fill="#8A704D" font-family="OpenSans-Regular, Open Sans" font-size="14" font-weight="normal"><tspan x="148" y="353">otherwise fail</tspan></text><path id="Line" fill="#EE6B47" fill-rule="nonzero" d="M554 180l14 7-14 7v-6H328v-2h226v-6z"/><path id="Line-2" fill="#EE6B47" fill-rule="nonzero" d="M340 258v6h228v2H340v6l-14-7 14-7z"/><path id="Line-3" fill="#EE6B47" fill-rule="nonzero" d="M80 326v6h247v2H80v6l-14-7 14-7z"/></g></g></svg>

<?xml version="1.0" encoding="UTF-8"?>
<svg width="633px" height="411px" viewBox="0 0 633 411" version="1.1" xmlns="http://www.w3.org/2000/svg" xmlns:xlink="http://www.w3.org/1999/xlink">
    <!-- Generator: sketchtool 61.2 (101010) - https://sketch.com -->
    <title>xhr-another-domain.svg</title>
    <desc>Created with sketchtool.</desc>
    <g id="network" stroke="none" stroke-width="1" fill="none" fill-rule="evenodd">
        <g id="xhr-another-domain.svg">
            <rect id="Rectangle-227" stroke="#E8C48E" stroke-width="2" fill="#FFF9EB" x="1" y="16" width="128" height="64"></rect>
            <text id="JavaScript" font-family="Helvetica" font-size="14" font-weight="normal" fill="#8A704D">
                <tspan x="35" y="49">JavaScript</tspan>
            </text>
            <rect id="Rectangle-228" stroke="#E8C48E" stroke-width="2" fill="#FFF9EB" x="261" y="16" width="128" height="64"></rect>
            <text id="Browser" font-family="Helvetica" font-size="14" font-weight="normal" fill="#8A704D">
                <tspan x="296" y="49">Browser</tspan>
            </text>
            <rect id="Rectangle-229" stroke="#E8C48E" stroke-width="2" fill="#FFF9EB" x="504" y="16" width="128" height="64"></rect>
            <text id="Server" font-family="Helvetica" font-size="14" font-weight="normal" fill="#8A704D">
                <tspan x="544" y="49">Server</tspan>
            </text>
            <line x1="66" y1="81" x2="66" y2="401" id="Line" stroke="#979797" stroke-linecap="square"></line>
            <line x1="326" y1="81" x2="326" y2="401" id="Line" stroke="#979797" stroke-linecap="square"></line>
            <line x1="569" y1="81" x2="569" y2="401" id="Line" stroke="#979797" stroke-linecap="square"></line>
            <path id="Line" d="M312,133 L326,140 L312,147 L312,141 L66,141 L66,139 L312,139 L312,133 Z" fill="#EE6B47" fill-rule="nonzero"></path>
            <text id="Origin:-https://java" font-family="Helvetica" font-size="14" font-weight="normal" line-spacing="26" fill="#8A704D">
                <tspan x="361.131348" y="204">Origin: https://javascript.info</tspan>
            </text>
            <text id="HTTP-request" font-family="Helvetica" font-size="14" font-weight="normal" line-spacing="26" fill="#8A704D">
                <tspan x="401.544922" y="173">HTTP-request</tspan>
            </text>
            <text id="fetch()" font-family="Helvetica" font-size="14" font-weight="normal" fill="#8A704D">
                <tspan x="171" y="130">fetch()</tspan>
            </text>
            <text id="HTTP-response" font-family="Helvetica" font-size="14" font-weight="normal" line-spacing="27" fill="#8A704D">
                <tspan x="398.59668" y="249">HTTP-response</tspan>
            </text>
            <text id="Access-Control-Allow" font-family="Helvetica" font-size="14" font-weight="normal" line-spacing="18" fill="#8A704D">
                <tspan x="352.920898" y="286">Access-Control-Allow-Origin:  * </tspan>
                <tspan x="372.362305" y="304">(or https://javascript.info)</tspan>
            </text>
            <text id="if-the-header-allows" font-family="Helvetica" font-size="14" font-weight="normal" line-spacing="18" fill="#8A704D">
                <tspan x="88.9970703" y="324">if the header allows, then success,</tspan>
            </text>
            <text id="otherwise-fail" font-family="Helvetica" font-size="14" font-weight="normal" line-spacing="18" fill="#8A704D">
                <tspan x="151.148438" y="352">otherwise fail</tspan>
            </text>
            <path id="Line" d="M554,180 L568,187 L554,194 L554,188 L328,188 L328,186 L554,186 L554,180 Z" fill="#EE6B47" fill-rule="nonzero"></path>
            <path id="Line-2" d="M340,258 L340,264 L568,264 L568,266 L340,266 L340,272 L326,265 L340,258 Z" fill="#EE6B47" fill-rule="nonzero"></path>
            <path id="Line-3" d="M80,326 L80,332 L327,332 L327,334 L80,334 L80,340 L66,333 L80,326 Z" fill="#EE6B47" fill-rule="nonzero"></path>
        </g>
    </g>
</svg>
